teeny/solid/superscript.svg

<svg width="15" height="15" viewBox="0 0 15 15" fill="none" xmlns="http://www.w3.org/2000/svg">
<path fill-rule="evenodd" clip-rule="evenodd" d="M12 1.5C12 0.671573 12.6716 0 13.5 0H13.7929C14.4596 0 15 0.54044 15 1.20711C15 1.52725 14.8728 1.83428 14.6465 2.06066L13.7071 3H15V4H12.5C12.2978 4 12.1155 3.87818 12.0381 3.69134C11.9607 3.5045 12.0035 3.28945 12.1465 3.14645L13.9393 1.35355C13.9782 1.31471 14 1.26204 14 1.20711C14 1.09272 13.9073 1 13.7929 1H13.5C13.2239 1 13 1.22386 13 1.5H12ZM5.37501 7.5L1.10001 1.8L1.90001 1.2L6.00001 6.66667L10.1 1.2L10.9 1.8L6.62501 7.5L10.9 13.2L10.1 13.8L6.00001 8.33333L1.90001 13.8L1.10001 13.2L5.37501 7.5Z" fill="black"/>
</svg>

<svg viewBox="0 0 15 15" xmlns="http://www.w3.org/2000/svg"><path fill-rule="evenodd" d="M12 1.5c0-.83.67-1.5 1.5-1.5h.29c.66 0 1.2.54 1.2 1.2 0 .32-.13.62-.36.85l-.94.93h1.29v1h-2.5c-.21 0-.39-.13-.47-.31 -.08-.19-.04-.41.1-.55l1.79-1.8c.03-.04.06-.1.06-.15 0-.12-.1-.21-.21-.21h-.3c-.28 0-.5.22-.5.5h-1Zm-6.63 6L1.09 1.8l.8-.6 4.1 5.46 4.09-5.47 .8.6 -4.28 5.7 4.27 5.7 -.8.6 -4.1-5.47 -4.1 5.46 -.8-.6 4.27-5.7Z"/></svg>
